X: 446
T: A Tune For Paddy: A Pint Of Guiness And One For The Goat
R: jig
M: 6/8
K: Eminor
edB AFB|GE^D E2 F|FD/E/F EFA|GAF D2 F|
E^DE F2 F|GG/A/B d2 c|AB/A/G AGF|GE^D E2:|
edB edB|gGF E2 G|dAd dAG|F^EF D2 F|
E^DE F2 =D|GAB d2 g/f/|edB cdF|GE^D E2:|

